X: 281
M: C|
L: 1/8
K: C
V: 1
EG-GA c>de(d | Tc>A)GA dedD |\
EG-GA c>dec | (e/f/g) de cCC :|
|: g |\
ecgc e>fga | ecgc eddg |\
ecgc ef>g(a | ec)dB cCC :|
V: 2 clef=bass middle=d
z |\
c2c2 c2c2 | c2c2 d2d2 |\
c2c2 c2c2 | g2G2 c2c :|\
|: z |
c2c2 c2c2 | c2c2 d2d2 |\
c2c2 c2c2 | G2G2 C2C :|

